img/arrow-sorting.svg

<svg width="12" height="6" viewBox="0 0 12 6" fill="none" xmlns="http://www.w3.org/2000/svg">
<path fill-rule="evenodd" clip-rule="evenodd" d="M1.80812 0.195262C1.54777 -0.0650874 1.12566 -0.0650874 0.865306 0.195262C0.604957 0.455612 0.604957 0.877722 0.865306 1.13807L5.52565 5.79842C5.52771 5.80053 5.52979 5.80264 5.53189 5.80474C5.66259 5.93543 5.83404 6.00052 6.00534 6C6.1753 5.9995 6.34511 5.93441 6.47478 5.80474C6.47687 5.80265 6.47894 5.80056 6.48099 5.79845L11.1414 1.13807C11.4017 0.877722 11.4017 0.455612 11.1414 0.195262C10.881 -0.0650874 10.4589 -0.0650874 10.1986 0.195262L6.00334 4.39048L1.80812 0.195262Z" fill="#2D3440"/>
</svg>

<svg width="12" height="6" fill="none" xmlns="http://www.w3.org/2000/svg"><path fill-rule="evenodd" clip-rule="evenodd" d="M1.80812.19526c-.26035-.26035-.68246-.26035-.94281 0-.26035.26035-.26035.68246 0 .94281l4.66034 4.66035a.74088.74088 0 0 0 .00624.00632c.1307.13069.30215.19578.47345.19526.16996-.0005.33977-.06559.46944-.19526a.61255.61255 0 0 0 .00621-.00629l4.66041-4.66038c.2603-.26035.2603-.68246 0-.9428-.2604-.26036-.6825-.26036-.9428 0L6.00334 4.39047 1.80812.19526Z" fill="#2D3440"/></svg>
